img/dashed-arrow-1.svg

<svg xmlns="http://www.w3.org/2000/svg" width="28" height="31" viewBox="0 0 28 31" fill="white">
  <path d="M1.47434 26.0172C1.38702 25.7552 1.10386 25.6136 0.841886 25.701C0.579914 25.7883 0.438334 26.0714 0.525658 26.3334L1.47434 26.0172ZM9.5 30.1753L9.36264 29.6945L9.5 30.1753ZM15.3688 21.3458L15.8496 21.2085L15.8425 21.1839L15.833 21.1601L15.3688 21.3458ZM10.5 22.6753L10.9808 22.5379L10.9778 22.5275L10.9743 22.5172L10.5 22.6753ZM16.2746 27.3381L16.0715 27.795L16.2746 27.3381ZM21.7262 0.514929C21.4583 0.447954 21.1868 0.610835 21.1199 0.878732L20.0285 5.24437C19.9615 5.51227 20.1244 5.78374 20.3923 5.85071C20.6602 5.91769 20.9316 5.75481 20.9986 5.48691L21.9687 1.60634L25.8493 2.57648C26.1172 2.64346 26.3887 2.48058 26.4556 2.21268C26.5226 1.94478 26.3597 1.67331 26.0918 1.60634L21.7262 0.514929ZM0.917219 27.1943C1.05615 27.4329 1.36224 27.5137 1.60089 27.3748C1.83953 27.2359 1.92037 26.9298 1.78143 26.6911L0.917219 27.1943ZM2.75893 27.8638C2.55327 27.6796 2.23716 27.6969 2.05289 27.9026C1.86861 28.1082 1.88594 28.4243 2.0916 28.6086L2.75893 27.8638ZM3.55893 29.6453C3.80003 29.78 4.10462 29.6937 4.23926 29.4526C4.3739 29.2115 4.2876 28.9069 4.04651 28.7722L3.55893 29.6453ZM5.5063 29.418C5.24475 29.3294 4.96091 29.4696 4.87232 29.7311C4.78373 29.9927 4.92393 30.2765 5.18548 30.3651L5.5063 29.418ZM6.91659 30.7806C7.19001 30.8193 7.44303 30.629 7.48172 30.3556C7.52042 30.0821 7.33014 29.8291 7.05672 29.7904L6.91659 30.7806ZM8.61969 29.8339C8.345 29.8622 8.14523 30.1078 8.1735 30.3825C8.20177 30.6571 8.44737 30.8569 8.72206 30.8286L8.61969 29.8339ZM10.6009 30.2733C10.8471 30.1484 10.9456 29.8475 10.8207 29.6012C10.6958 29.3549 10.3949 29.2565 10.1486 29.3814L10.6009 30.2733ZM11.5894 28.379C11.3825 28.5619 11.3631 28.8778 11.546 29.0847C11.7289 29.2916 12.0449 29.3111 12.2517 29.1282L11.5894 28.379ZM13.6047 27.695C13.7769 27.4791 13.7415 27.1645 13.5256 26.9923C13.3097 26.8201 12.9951 26.8555 12.8229 27.0714L13.6047 27.695ZM13.8408 25.5752C13.7032 25.8147 13.7858 26.1203 14.0252 26.2579C14.2647 26.3954 14.5703 26.3128 14.7079 26.0734L13.8408 25.5752ZM15.5436 24.2859C15.6368 24.026 15.5017 23.7397 15.2418 23.6465C14.9819 23.5532 14.6956 23.6883 14.6023 23.9483L15.5436 24.2859ZM14.9671 22.2601C14.9567 22.5361 15.1721 22.7682 15.448 22.7785C15.724 22.7888 15.956 22.5735 15.9664 22.2975L14.9671 22.2601ZM15.2993 20.0908C15.1531 19.8566 14.8447 19.7851 14.6104 19.9313C14.3761 20.0774 14.3047 20.3859 14.4509 20.6201L15.2993 20.0908ZM13.0945 19.4669C13.3622 19.5349 13.6343 19.373 13.7023 19.1054C13.7702 18.8377 13.6084 18.5656 13.3407 18.4977L13.0945 19.4669ZM10.8496 19.252C10.6539 19.4468 10.6532 19.7634 10.848 19.9591C11.0428 20.1549 11.3594 20.1556 11.5551 19.9608L10.8496 19.252ZM10.844 21.608C10.8553 21.3321 10.6407 21.0993 10.3648 21.0881C10.0888 21.0769 9.85608 21.2915 9.84486 21.5674L10.844 21.608ZM10.5486 23.8033C10.7152 24.0234 11.0288 24.0669 11.249 23.9002C11.4692 23.7336 11.5126 23.42 11.346 23.1998L10.5486 23.8033ZM12.601 24.4449C12.3875 24.2697 12.0725 24.3006 11.8973 24.5141C11.7221 24.7275 11.753 25.0426 11.9665 25.2178L12.601 24.4449ZM13.5343 26.3632C13.7649 26.5151 14.075 26.4514 14.2269 26.2208C14.3789 25.9902 14.3151 25.6801 14.0845 25.5282L13.5343 26.3632ZM15.6672 26.4773C15.4241 26.3462 15.1208 26.4368 14.9897 26.6798C14.8585 26.9229 14.9492 27.2262 15.1922 27.3573L15.6672 26.4773ZM17.174 28.1915C17.4402 28.2647 17.7154 28.1081 17.7886 27.8419C17.8618 27.5756 17.7053 27.3004 17.439 27.2272L17.174 28.1915ZM19.4298 27.4146C19.1548 27.4396 18.9521 27.6829 18.9772 27.9579C19.0022 28.2329 19.2454 28.4355 19.5204 28.4105L19.4298 27.4146ZM21.7893 27.7719C22.038 27.6519 22.1423 27.353 22.0223 27.1043C21.9023 26.8556 21.6034 26.7513 21.3547 26.8713L21.7893 27.7719ZM23.0421 25.7206C22.8367 25.9052 22.82 26.2214 23.0046 26.4267C23.1893 26.632 23.5054 26.6488 23.7108 26.4641L23.0421 25.7206ZM25.236 24.7521C25.3977 24.5283 25.3474 24.2157 25.1237 24.054C24.8999 23.8922 24.5873 23.9425 24.4255 24.1663L25.236 24.7521ZM25.5009 22.3606C25.3801 22.6089 25.4835 22.9082 25.7319 23.0289C25.9802 23.1497 26.2794 23.0463 26.4002 22.7979L25.5009 22.3606ZM27.2244 20.6832C27.3035 20.4186 27.1531 20.14 26.8885 20.061C26.6239 19.9819 26.3453 20.1323 26.2663 20.3969L27.2244 20.6832ZM26.6899 18.3422C26.6595 18.6166 26.8575 18.8637 27.1319 18.894C27.4064 18.9244 27.6535 18.7265 27.6838 18.452L26.6899 18.3422ZM27.7242 16.1882C27.7119 15.9123 27.4782 15.6986 27.2024 15.7109C26.9265 15.7232 26.7128 15.9569 26.7251 16.2327L27.7242 16.1882ZM26.5297 14.1021C26.5681 14.3756 26.8209 14.5662 27.0943 14.5278C27.3678 14.4894 27.5584 14.2366 27.52 13.9632L26.5297 14.1021ZM27.1019 11.7675C27.0372 11.499 26.7671 11.3339 26.4986 11.3987C26.2302 11.4634 26.0651 11.7335 26.1298 12.0019L27.1019 11.7675ZM25.5314 9.94639C25.6204 10.2078 25.9045 10.3475 26.1659 10.2585C26.4273 10.1695 26.567 9.88539 26.478 9.62399L25.5314 9.94639ZM25.6754 7.54743C25.5661 7.29381 25.272 7.17678 25.0184 7.28602C24.7648 7.39527 24.6477 7.68942 24.757 7.94304L25.6754 7.54743ZM23.8409 5.9905C23.9653 6.23701 24.266 6.33597 24.5125 6.21153C24.759 6.08709 24.858 5.78638 24.7336 5.53986L23.8409 5.9905ZM23.6943 3.59133C23.5597 3.35025 23.2551 3.26398 23.014 3.39864C22.7729 3.5333 22.6866 3.8379 22.8213 4.07898L23.6943 3.59133ZM21.7347 2.19432C21.8752 2.43203 22.1818 2.51081 22.4195 2.37028C22.6572 2.22975 22.736 1.92313 22.5955 1.68542L21.7347 2.19432ZM0.525658 26.3334C0.625785 26.6338 0.758186 26.9211 0.917219 27.1943L1.78143 26.6911C1.65439 26.4729 1.55128 26.248 1.47434 26.0172L0.525658 26.3334ZM2.0916 28.6086C2.53109 29.0024 3.02899 29.3494 3.55893 29.6453L4.04651 28.7722C3.57319 28.5079 3.13712 28.2027 2.75893 27.8638L2.0916 28.6086ZM5.18548 30.3651C5.75652 30.5585 6.34132 30.6992 6.91659 30.7806L7.05672 29.7904C6.5456 29.7181 6.02123 29.5924 5.5063 29.418L5.18548 30.3651ZM8.72206 30.8286C9.03829 30.7961 9.34538 30.7395 9.63736 30.6561L9.36264 29.6945C9.13336 29.76 8.88455 29.8066 8.61969 29.8339L8.72206 30.8286ZM9.63736 30.6561C9.96485 30.5625 10.287 30.4324 10.6009 30.2733L10.1486 29.3814C9.88443 29.5153 9.62166 29.6205 9.36264 29.6945L9.63736 30.6561ZM12.2517 29.1282C12.7353 28.7008 13.1904 28.2142 13.6047 27.695L12.8229 27.0714C12.4407 27.5504 12.025 27.994 11.5894 28.379L12.2517 29.1282ZM14.7079 26.0734C15.0472 25.4827 15.3314 24.8774 15.5436 24.2859L14.6023 23.9483C14.4122 24.4783 14.154 25.03 13.8408 25.5752L14.7079 26.0734ZM15.9664 22.2975C15.9806 21.9178 15.9469 21.5491 15.8496 21.2085L14.888 21.4832C14.9502 21.7009 14.9783 21.9608 14.9671 22.2601L15.9664 22.2975ZM15.833 21.1601C15.6717 20.7569 15.4929 20.4012 15.2993 20.0908L14.4509 20.6201C14.6094 20.8743 14.7623 21.1761 14.9046 21.5316L15.833 21.1601ZM13.3407 18.4977C12.3943 18.2572 11.4873 18.6173 10.8496 19.252L11.5551 19.9608C11.9986 19.5193 12.5584 19.3307 13.0945 19.4669L13.3407 18.4977ZM9.84486 21.5674C9.82811 21.9797 9.88369 22.4075 10.0257 22.8334L10.9743 22.5172C10.8715 22.2086 10.8321 21.9019 10.844 21.608L9.84486 21.5674ZM10.0192 22.8127C10.1173 23.156 10.3118 23.4904 10.5486 23.8033L11.346 23.1998C11.1505 22.9415 11.0325 22.7191 10.9808 22.5379L10.0192 22.8127ZM11.9665 25.2178C12.4589 25.622 13.0002 26.0113 13.5343 26.3632L14.0845 25.5282C13.5726 25.1908 13.0607 24.8222 12.601 24.4449L11.9665 25.2178ZM15.1922 27.3573C15.5192 27.5338 15.8189 27.6827 16.0715 27.795L16.4777 26.8812C16.2543 26.7819 15.9781 26.6451 15.6672 26.4773L15.1922 27.3573ZM16.0715 27.795C16.4422 27.9598 16.8099 28.0914 17.174 28.1915L17.439 27.2272C17.1252 27.141 16.8046 27.0265 16.4777 26.8812L16.0715 27.795ZM19.5204 28.4105C20.3226 28.3375 21.082 28.1132 21.7893 27.7719L21.3547 26.8713C20.7462 27.1649 20.1027 27.3534 19.4298 27.4146L19.5204 28.4105ZM23.7108 26.4641C24.2719 25.9594 24.7821 25.38 25.236 24.7521L24.4255 24.1663C24.0084 24.7433 23.5449 25.2684 23.0421 25.7206L23.7108 26.4641ZM26.4002 22.7979C26.7336 22.1124 27.0102 21.4001 27.2244 20.6832L26.2663 20.3969C26.0675 21.0621 25.8105 21.7239 25.5009 22.3606L26.4002 22.7979ZM27.6838 18.452C27.7267 18.0639 27.7488 17.6802 27.7488 17.3046H26.7488C26.7488 17.6411 26.729 17.9881 26.6899 18.3422L27.6838 18.452ZM27.7488 17.3046C27.7488 16.9265 27.7405 16.5545 27.7242 16.1882L26.7251 16.2327C26.7408 16.5841 26.7488 16.9412 26.7488 17.3046H27.7488ZM27.52 13.9632C27.4144 13.2105 27.2739 12.4804 27.1019 11.7675L26.1298 12.0019C26.2943 12.6841 26.4287 13.3824 26.5297 14.1021L27.52 13.9632ZM26.478 9.62399C26.2384 8.9205 25.9695 8.23022 25.6754 7.54743L24.757 7.94304C25.0418 8.60429 25.3011 9.27009 25.5314 9.94639L26.478 9.62399ZM24.7336 5.53986C24.4058 4.89061 24.0582 4.24274 23.6943 3.59133L22.8213 4.07898C23.1798 4.72083 23.5206 5.35615 23.8409 5.9905L24.7336 5.53986ZM22.5955 1.68542C22.411 1.37338 22.2236 1.05931 22.0337 0.742752L21.1762 1.25725C21.3653 1.57246 21.5516 1.88461 21.7347 2.19432L22.5955 1.68542Z"/>
</svg>

<svg xmlns="http://www.w3.org/2000/svg" width="28" height="31" fill="#fff"><path d="M1.474 26.017a.5.5 0 10-.948.316l.948-.316zM9.5 30.175l-.137-.48.137.48zm5.869-8.83l.48-.136-.007-.025-.009-.024-.464.186zm-4.869 1.33l.48-.137-.002-.01-.004-.01-.474.157zm5.775 4.663l-.203.457.203-.457zM21.726.515a.5.5 0 00-.606.364l-1.091 4.365a.5.5 0 10.97.243l.97-3.88 3.88.97a.5.5 0 10.243-.97L21.726.514zM.917 27.195a.5.5 0 00.864-.504l-.864.503zm1.842.669a.5.5 0 00-.667.745l.667-.745zm.8 1.781a.5.5 0 10.488-.873l-.488.873zm1.947-.227a.5.5 0 10-.32.947l.32-.947zm1.41 1.363a.5.5 0 10.14-.99l-.14.99zm1.704-.947a.5.5 0 00.102.995l-.102-.995zm1.98.44a.5.5 0 00-.451-.893l.452.892zm.99-1.895a.5.5 0 10.662.75l-.663-.75zm2.015-.684a.5.5 0 10-.782-.624l.782.624zm.236-2.12a.5.5 0 10.867.498l-.867-.498zm1.703-1.29a.5.5 0 00-.942-.337l.942.338zm-.577-2.025a.5.5 0 101 .037l-1-.037zm.332-2.17a.5.5 0 00-.848.53l.848-.53zm-2.204-.623a.5.5 0 00.246-.97l-.246.97zm-2.245-.215a.5.5 0 00.705.709l-.705-.709zm-.006 2.356a.5.5 0 10-1-.04l1 .04zm-.295 2.195a.5.5 0 00.797-.603l-.797.603zm2.052.642a.5.5 0 10-.635.773l.635-.773zm.933 1.918a.5.5 0 00.55-.835l-.55.835zm2.133.114a.5.5 0 00-.475.88l.475-.88zm1.507 1.715a.5.5 0 00.265-.965l-.265.965zm2.256-.777a.5.5 0 10.09.995l-.09-.995zm2.36.357a.5.5 0 10-.435-.9l.434.9zm1.252-2.051a.5.5 0 10.669.743l-.669-.743zm2.194-.969a.5.5 0 00-.81-.586l.81.586zm.265-2.391a.5.5 0 10.9.437l-.9-.437zm1.723-1.678a.5.5 0 10-.958-.286l.958.286zm-.534-2.34a.5.5 0 10.994.109l-.994-.11zm1.034-2.155a.5.5 0 00-.999.045l1-.045zm-1.194-2.086a.5.5 0 00.99-.139l-.99.14zm.572-2.335a.5.5 0 10-.972.235l.972-.235zm-1.57-1.82a.5.5 0 10.946-.323l-.947.322zm.143-2.4a.5.5 0 00-.918.396l.918-.396zm-1.834-1.556a.5.5 0 10.893-.451l-.893.45zm-.147-2.4a.5.5 0 10-.873.488l.873-.488zm-1.96-1.397a.5.5 0 10.861-.509l-.86.51zM.527 26.334c.1.3.232.587.391.86l.864-.503a3.607 3.607 0 01-.307-.674l-.948.316zm1.566 2.275c.44.393.937.74 1.467 1.036l.488-.873a7.167 7.167 0 01-1.288-.908l-.667.745zm3.093 1.756a9.633 9.633 0 001.732.416l.14-.99a8.63 8.63 0 01-1.55-.373l-.322.947zm3.537.464c.316-.033.623-.09.915-.173l-.274-.961c-.23.065-.478.112-.743.139l.102.995zm.915-.173a5.45 5.45 0 00.964-.383l-.452-.892c-.265.134-.527.24-.786.314l.274.961zm2.615-1.528c.483-.427.938-.914 1.353-1.433l-.782-.624a10.44 10.44 0 01-1.234 1.308l.663.75zm2.456-3.055c.34-.59.623-1.196.836-1.787l-.942-.338a10.25 10.25 0 01-.761 1.627l.867.498zm1.258-3.776c.015-.38-.02-.748-.116-1.088l-.962.274c.062.218.09.478.08.777l.998.037zm-.133-1.137a6.769 6.769 0 00-.534-1.07l-.848.53c.158.254.311.556.454.912l.928-.372zm-2.492-2.662c-.947-.24-1.854.12-2.491.754l.705.709c.444-.442 1.003-.63 1.54-.494l.246-.97zm-3.496 3.07c-.017.412.039.84.18 1.265l.95-.316a2.542 2.542 0 01-.131-.909l-1-.04zm.174 1.245c.098.343.293.677.53.99l.797-.603c-.196-.258-.313-.48-.365-.662l-.962.275zm1.947 2.405a19 19 0 001.568 1.145l.55-.835a17.862 17.862 0 01-1.483-1.083l-.635.773zm3.226 2.14c.327.176.627.325.88.437l.406-.914c-.224-.1-.5-.236-.81-.404l-.476.88zm.88.437c.37.165.738.296 1.102.396l.265-.964a6.805 6.805 0 01-.961-.346l-.407.914zm3.448.615a6.574 6.574 0 002.27-.638l-.435-.9a5.575 5.575 0 01-1.925.543l.09.995zm4.19-1.946a10.847 10.847 0 001.526-1.712l-.81-.586a9.844 9.844 0 01-1.384 1.555l.669.743zm2.69-3.666c.334-.686.61-1.398.824-2.115l-.958-.286a13.057 13.057 0 01-.765 1.964l.9.437zm1.284-4.346c.043-.388.065-.772.065-1.147h-1c0 .336-.02.683-.06 1.037l.995.11zm.065-1.147c0-.378-.008-.75-.025-1.117l-.999.045c.016.351.024.708.024 1.072h1zm-.229-3.342a22.927 22.927 0 00-.418-2.195l-.972.234c.164.682.299 1.38.4 2.1l.99-.139zm-1.042-4.339a28.35 28.35 0 00-.803-2.077l-.918.396c.285.661.544 1.327.774 2.003l.947-.322zM24.734 5.54a52.723 52.723 0 00-1.04-1.949l-.873.488c.359.642.7 1.277 1.02 1.912l.893-.451zm-2.139-3.855c-.184-.312-.371-.626-.561-.942l-.858.514c.19.315.376.628.559.937l.86-.509z"/></svg>
